digitransit-component/packages/digitransit-component-icon/src/assets/speedtram.svg

<svg viewBox="0 0 240 240" fill="none" xmlns="http://www.w3.org/2000/svg">
<path d="M29.9968 0H209.995C226.555 0 239.992 13.4453 239.992 29.9979V210.002C239.992 226.563 226.547 240 209.995 240H29.9968C13.4363 240 0 226.555 0 210.002V29.9979C0 13.4453 13.4448 0 29.9968 0Z" fill="#007E79"/>
<path d="M178.855 149.388L166.384 62.3157C165.554 56.1264 161.812 50.7585 156.427 48.2184C144.972 42.7997 133.127 40.7592 126.269 39.9294V29.3713H148.333C151.601 29.3713 154.251 26.7212 154.251 23.453C154.251 20.1848 151.601 17.5347 148.333 17.5347H92.014C88.7459 17.5347 86.0959 20.1848 86.0959 23.453C86.0959 26.7212 88.7459 29.3713 92.014 29.3713H114.112V39.9294C107.22 40.7592 95.3752 42.7997 83.92 48.2184C78.5353 50.7669 74.8185 56.1349 73.9888 62.3157L61.5176 149.38C60.5863 155.925 61.2213 162.613 63.304 168.853C64.5401 172.553 66.8515 180.021 68.2569 183.67C70.2381 188.818 74.7254 192.442 79.8222 193.763C89.093 196.167 102.927 198.25 120.174 198.25C137.42 198.25 151.254 196.167 160.525 193.763C165.63 192.442 170.109 188.818 172.09 183.67C173.496 180.03 175.807 172.562 177.043 168.853C179.126 162.613 179.786 155.925 178.855 149.38V149.388ZM167.645 161.589L164.496 171.275C163.691 173.73 162.413 174.34 160.483 174.924C156.105 176.245 137.598 179.395 120.174 179.522C102.741 179.395 84.2756 176.245 79.8984 174.924C77.9765 174.34 76.698 173.73 75.8937 171.275L72.7442 161.589C72.0245 159.405 73.8364 157.855 76.2747 158.515C83.8268 160.564 92.2171 162.275 99.202 163.646C101.319 164.061 103.283 165.374 104.206 167.262C105.289 169.48 107.457 171.004 109.777 171.148C112.952 171.351 116.66 171.47 120.174 171.47C123.687 171.47 127.387 171.351 130.562 171.148C132.882 171.004 135.049 169.472 136.133 167.262C137.064 165.374 139.028 164.061 141.137 163.646C148.113 162.275 156.546 160.564 164.089 158.515C166.536 157.855 168.348 159.405 167.628 161.589H167.645ZM162.836 144.672C152.787 147.89 136.81 151.386 120.182 151.386C103.554 151.386 87.586 147.898 77.5447 144.672C75.318 143.961 73.938 141.743 74.2682 139.423L83.0818 77.8522C83.3696 75.8541 84.8767 74.2454 86.8578 73.839C95.5191 72.044 107.321 70.3761 120.182 70.3761C133.043 70.3761 144.87 72.044 153.532 73.839C155.513 74.2454 157.02 75.8541 157.308 77.8522L166.121 139.423C166.451 141.743 165.071 143.953 162.845 144.672H162.836ZM154.268 204.101C150.086 204.956 145.395 205.633 140.62 206.15C140.62 206.15 149.696 216.953 152.075 219.798C155.149 223.464 157.646 224.641 161.168 224.641C165.156 224.641 168.704 221.695 164.504 216.454C162.447 213.88 154.268 204.101 154.268 204.101ZM86.1128 204.101C90.2953 204.956 94.9857 205.633 99.7608 206.15C99.7608 206.15 90.6847 216.953 88.3056 219.798C85.2323 223.464 82.7347 224.641 79.2126 224.641C75.2249 224.641 71.6774 221.695 75.8768 216.454C77.9342 213.88 86.1128 204.101 86.1128 204.101Z" fill="white"/>
</svg>

<svg xmlns="http://www.w3.org/2000/svg" fill="none" viewBox="0 0 240 240">
 <path fill="#007e79" d="M29.997 0h179.998c16.56 0 29.997 13.445 29.997 29.998v180.004c0 16.561-13.445 29.998-29.997 29.998H29.997C13.437 240 0 226.555 0 210.002V29.998C0 13.445 13.445 0 29.997 0"/>
 <path fill="#fff" d="m178.855 149.388-12.471-87.072c-.83-6.19-4.572-11.558-9.957-14.098-11.455-5.418-23.3-7.459-30.158-8.289V29.371h22.064a5.919 5.919 0 0 0 0-11.836H92.014a5.919 5.919 0 0 0 0 11.836h22.098V39.93c-6.892.83-18.737 2.87-30.192 8.29-5.385 2.548-9.102 7.916-9.931 14.097L61.518 149.38a42.65 42.65 0 0 0 1.786 19.473c1.236 3.7 3.547 11.168 4.953 14.817 1.981 5.148 6.468 8.772 11.565 10.093 9.271 2.404 23.105 4.487 40.352 4.487s31.08-2.083 40.351-4.487c5.105-1.321 9.584-4.945 11.565-10.093 1.406-3.64 3.717-11.108 4.953-14.817 2.083-6.24 2.743-12.928 1.812-19.473zm-11.21 12.201-3.149 9.686c-.805 2.455-2.083 3.065-4.013 3.649-4.378 1.321-22.885 4.471-40.309 4.598-17.433-.127-35.898-3.277-40.276-4.598-1.921-.584-3.2-1.194-4.004-3.649l-3.15-9.686c-.72-2.184 1.092-3.734 3.53-3.074 7.553 2.049 15.943 3.76 22.928 5.131 2.117.415 4.081 1.728 5.004 3.616 1.083 2.218 3.251 3.742 5.571 3.886 3.175.203 6.883.322 10.397.322 3.513 0 7.213-.119 10.388-.322 2.32-.144 4.487-1.676 5.571-3.886.931-1.888 2.895-3.201 5.004-3.616 6.976-1.371 15.409-3.082 22.952-5.131 2.447-.66 4.259.89 3.539 3.074zm-4.809-16.917c-10.049 3.218-26.026 6.714-42.654 6.714s-32.596-3.488-42.637-6.714a4.79 4.79 0 0 1-3.277-5.249l8.814-61.57a4.79 4.79 0 0 1 3.776-4.014c8.661-1.795 20.463-3.463 33.324-3.463s24.688 1.668 33.35 3.463a4.79 4.79 0 0 1 3.776 4.013l8.813 61.571a4.8 4.8 0 0 1-3.276 5.249zm-8.568 59.429c-4.182.855-8.873 1.532-13.648 2.049 0 0 9.076 10.803 11.455 13.648 3.074 3.666 5.571 4.843 9.093 4.843 3.988 0 7.536-2.946 3.336-8.187-2.057-2.574-10.236-12.353-10.236-12.353m-68.155 0c4.182.855 8.873 1.532 13.648 2.049 0 0-9.076 10.803-11.455 13.648-3.074 3.666-5.571 4.843-9.093 4.843-3.988 0-7.536-2.946-3.336-8.187 2.057-2.574 10.236-12.353 10.236-12.353"/>
</svg>
